X: 23854
T: Livingstone Pond
R: jig
M: 6/8
K: Amajor
B|A3 A,CF|EAf e3|cBA aed|c3 ecA|
B3 EGB|B,EG B2c|dcB fed|cBA ecA|
A3 A,CF|EAc efA|cBA aed|c3 ecA|
dcd fed|cBA ecA|GFE dcB|A3 A2:|b|
|:a3 Ace|aea c'ac'|e'c'a eac|c'e'2 e'c'a|
d'3 f'ad'|c'3 e'ac'|1 bge agf|e3 efg:|2 bge dcB|A3 A2||

